svg/Mapbox-maki/polling-place-12.svg

<?xml version="1.0" encoding="UTF-8" standalone="no"?>
<!-- Created with Inkscape (http://www.inkscape.org/) -->

<svg
   xmlns:dc="http://purl.org/dc/elements/1.1/"
   xmlns:cc="http://creativecommons.org/ns#"
   xmlns:rdf="http://www.w3.org/1999/02/22-rdf-syntax-ns#"
   xmlns:svg="http://www.w3.org/2000/svg"
   xmlns="http://www.w3.org/2000/svg"
   xmlns:sodipodi="http://sodipodi.sourceforge.net/DTD/sodipodi-0.dtd"
   xmlns:inkscape="http://www.inkscape.org/namespaces/inkscape"
   width="12"
   height="12"
   id="svg4764"
   version="1.1"
   inkscape:version="0.48.2 r9819"
   sodipodi:docname="polling-place-12.svg">
  <defs
     id="defs4766" />
  <sodipodi:namedview
     id="base"
     pagecolor="#ffffff"
     bordercolor="#666666"
     borderopacity="1.0"
     inkscape:pageopacity="0.0"
     inkscape:pageshadow="2"
     inkscape:zoom="22.627417"
     inkscape:cx="8.446568"
     inkscape:cy="7.4753105"
     inkscape:document-units="px"
     inkscape:current-layer="layer1"
     showgrid="true"
     showguides="true"
     inkscape:guide-bbox="true"
     inkscape:window-width="1354"
     inkscape:window-height="907"
     inkscape:window-x="318"
     inkscape:window-y="5"
     inkscape:window-maximized="0"
     inkscape:snap-grids="true"
     inkscape:snap-to-guides="true">
    <inkscape:grid
       type="xygrid"
       id="grid4772"
       empspacing="2"
       visible="true"
       enabled="true"
       snapvisiblegridlinesonly="true"
       color="#ff00ff"
       opacity="0.1254902"
       empcolor="#ff00ff"
       empopacity="0.25098039" />
    <sodipodi:guide
       orientation="0,1"
       position="2,12"
       id="guide4789" />
    <sodipodi:guide
       orientation="1,0"
       position="12,10"
       id="guide4791" />
    <sodipodi:guide
       orientation="0,1"
       position="10,0"
       id="guide4793" />
    <sodipodi:guide
       orientation="1,0"
       position="0,9"
       id="guide4795" />
    <sodipodi:guide
       orientation="0,1"
       position="5,11"
       id="guide4797" />
    <sodipodi:guide
       orientation="1,0"
       position="11,7"
       id="guide4799" />
    <sodipodi:guide
       orientation="0,1"
       position="9,2"
       id="guide4801" />
    <sodipodi:guide
       orientation="1,0"
       position="2,5"
       id="guide4803" />
  </sodipodi:namedview>
  <metadata
     id="metadata4769">
    <rdf:RDF>
      <cc:Work
         rdf:about="">
        <dc:format>image/svg+xml</dc:format>
        <dc:type
           rdf:resource="http://purl.org/dc/dcmitype/StillImage" />
        <dc:title />
      </cc:Work>
    </rdf:RDF>
  </metadata>
  <g
     inkscape:label="Layer 1"
     inkscape:groupmode="layer"
     id="layer1"
     transform="translate(0,-1040.3622)"
     style="display:inline">
    <path
       style="font-size:medium;font-style:normal;font-variant:normal;font-weight:normal;font-stretch:normal;text-indent:0;text-align:start;text-decoration:none;line-height:normal;letter-spacing:normal;word-spacing:normal;text-transform:none;direction:ltr;block-progression:tb;writing-mode:lr-tb;text-anchor:start;baseline-shift:baseline;opacity:0.3;color:#000000;fill:#ffffff;fill-opacity:1;stroke:none;stroke-width:1.5;marker:none;visibility:visible;display:inline;overflow:visible;enable-background:accumulate;font-family:Sans;-inkscape-font-specification:Sans"
       d="M 2.5,1 C 1.691432,1 1,1.691432 1,2.5 l 0,7 C 1,10.308568 1.691432,11 2.5,11 l 7,0 C 10.308568,11 11,10.308568 11,9.5 L 11,7 c 0.005,-0.5249597 -0.47504,-1.0050424 -1,-1 L 9.875,6 11.78125,3.625 C 11.921661,3.4492 12.000153,3.225 12,3 L 12,2 C 11.999848,1.4764 11.523557,1.0002 11,1 L 9.40625,1 C 9.1236977,1.025 8.8548569,1.17725 8.6875,1.40625 L 8,2.34375 8,2 C 8.0050424,1.4750403 7.5249597,0.99495761 7,1 z"
       transform="translate(0,1040.3622)"
       id="path3239"
       inkscape:connector-curvature="0"
       sodipodi:nodetypes="ssssssccccccccccccs" />
    <path
       style="color:#000000;fill:#444444;fill-opacity:1;stroke:none;stroke-width:2;marker:none;visibility:visible;display:inline;overflow:visible;enable-background:accumulate"
       d="M 2.5 2 C 2.223 2 2 2.223 2 2.5 L 2 9.5 C 2 9.777 2.223 10 2.5 10 L 9.5 10 C 9.777 10 10 9.777 10 9.5 L 10 7 L 9 7 L 9 9 L 3 9 L 3 3 L 7 3 L 7 2 L 2.5 2 z "
       transform="translate(0,1040.3622)"
       id="path3936" />
    <path
       style="font-size:medium;font-style:normal;font-variant:normal;font-weight:normal;font-stretch:normal;text-indent:0;text-align:start;text-decoration:none;line-height:normal;letter-spacing:normal;word-spacing:normal;text-transform:none;direction:ltr;block-progression:tb;writing-mode:lr-tb;text-anchor:start;baseline-shift:baseline;color:#000000;fill:#444444;fill-opacity:1;stroke:none;stroke-width:1.5;marker:none;visibility:visible;display:inline;overflow:visible;enable-background:accumulate;font-family:Sans;-inkscape-font-specification:Sans"
       d="m 9.5,1042.3622 -3,4 -1,-1 -1.5,0 0,1 2,2 1,0 4,-5 0,-1 z"
       id="path3940"
       inkscape:connector-curvature="0"
       sodipodi:nodetypes="cccccccccc" />
  </g>
  <g
     inkscape:groupmode="layer"
     id="layer2"
     inkscape:label="original"
     style="display:none">
    <path
       style="color:#000000;fill:#ff0000;fill-opacity:1;stroke:none;stroke-width:2;marker:none;visibility:visible;display:inline;overflow:visible;enable-background:accumulate"
       d="m 3,1.90625 c -0.277,0 -0.5,0.2229999 -0.5,0.5 l 0,6.5 c 0,0.277 0.223,0.5 0.5,0.5 l 6.5,0 c 0.277,0 0.5,-0.223 0.5,-0.5 l 0,-3 -1,0 0,2.5 -5.5,0 0,-5.5 4,0 0,-1 -4.5,0 z"
       id="rect11284-4"
       inkscape:connector-curvature="0" />
    <path
       style="font-size:medium;font-style:normal;font-variant:normal;font-weight:normal;font-stretch:normal;text-indent:0;text-align:start;text-decoration:none;line-height:normal;letter-spacing:normal;word-spacing:normal;text-transform:none;direction:ltr;block-progression:tb;writing-mode:lr-tb;text-anchor:start;baseline-shift:baseline;color:#000000;fill:#ff0000;fill-opacity:1;stroke:none;stroke-width:3;marker:none;visibility:visible;display:inline;overflow:visible;enable-background:accumulate;font-family:Sans;-inkscape-font-specification:Sans"
       d="M 10.1875,1.4063 C 9.992696,1.4298 9.808744,1.53325 9.6875,1.6875 L 6.5,5.5 5.578125,4.4219 C 5.332726,4.08885 4.791665,4.0299 4.480327,4.30235 4.16899,4.57475 4.155582,5.11885 4.453127,5.4063 l 1.494475,1.7665498 c 0.285008,0.3247 0.864546,0.3168 1.140625,-0.0155 L 10.843752,2.6408 C 11.039455,2.41355 11.07845,2.06405 10.937662,1.79925 10.796869,1.53445 10.48536,1.3713 10.187506,1.40645 z"
       id="path3846-0"
       inkscape:connector-curvature="0"
       sodipodi:nodetypes="ccccsccccscc" />
  </g>
</svg>

<svg xmlns="http://www.w3.org/2000/svg" viewBox="0 0 12 12"><g transform="translate(0-1040.36)" color="#000"><g transform="translate(0 1040.36)"><path d="m2.5 1c-.809 0-1.5.691-1.5 1.5v7c0 .809.691 1.5 1.5 1.5h7c.809 0 1.5-.691 1.5-1.5v-2.5c.005-.525-.475-1.01-1-1h-.125l1.906-2.375c.14-.176.219-.4.219-.625v-1c0-.524-.476-1-1-1h-1.594c-.283.025-.551.177-.719.406l-.688.938v-.344c.005-.525-.475-1.01-1-1z" opacity=".3" fill="#fff"/><path d="m2.5 2c-.277 0-.5.223-.5.5v7c0 .277.223.5.5.5h7c.277 0 .5-.223.5-.5v-2.5h-1v2h-6v-6h4v-1h-4.5" fill="#444"/></g><path d="m9.5 1042.36l-3 4-1-1h-1.5v1l2 2h1l4-5v-1z" fill="#444"/></g></svg>
